!!!Genre:	Gas-nign
!!!Mode:	Freygish
!!!Edition:	2015
!!!Listening/dance:	listening
!!!Free rhythm?:	No
!!!Secondary Modes:	All freygish
!!!One_Mode:	no
**kern
*I"P1
*clefG2
*k[b-e-a-]
*G:frey
*M3/4
*>A
*>bM
*c:
8d
=1
4g
8ee-L
8ee-J
8.ccL
16gJk
=2
2dd
12ccL
12bn
12a-J
=3
4g
4bn
4dd
=4
2cc
8qdd/
12ccL
12bn
12a-J
=5
4g
(8qff/
8ee-L)
8ee-J
(8.ccL
16gJk)
=6
2dd
(16ccKL
8bn
16a-Jk)
=7
2g
(16bnLL
16cc
16dd
16ee-JJ)
=
2cc
8r
*>eM
*G:frey
=8!|:
16r
*>B
16g
=9
(8.ccL
32bnLL
32ccJJJ)
4ff
4cc
=10
2ff
12ee-L
12dd
12ccJ
=11
8bnL
8cc
8dd
8ee-J
(32ff#XKLL
16.ggJ
8ee-J)
=12
2dd
12ccL
12bn
12a-J
=13
8.gL
16gJk
4bn
4b
=14
2bn
12a-L
12g
12fJ
=15
16enKL
(8qg/
8.fJ)
(16gKL
8.a-J)
16bnKL
(8qdd/
8cc)
16a-Jk
=16
(8qa-/
[2g)
8g]
=:|!
*-
